X: 2363
T:Such a Wife as Willie had
M:4/4
L:1/4
S:Henry Atkinson 1694/5 transcribed John Stokoe 1883
N:Time signature omitted by HA/JS.  1st note, bars 7, 11 missing.  Bar 10
N:The first two 'G's are clear, there  may be two faint 'E's underneath
K:A minor
Adde|f2ed|f2ed|e2c2|Add2|f2ed|e f/2g/2 a/2g/2f/2e/2|d2A2||aab/2a/2g/2^f/
2|gga/2g/2f/2e/2|ffg/2f/2e/2d/2|e2c2|aab/2a/2g/2f/2|gga/2g/2f/2e/2|ef/2g
/2 a/2g/2f/2e/2|d2A2||
